svg/fluentui-system-icons/ic_fluent_money_dismiss_24_filled.svg

<svg width="24" height="24" viewBox="0 0 24 24" fill="none" xmlns="http://www.w3.org/2000/svg">
<path d="M2 6.75C2 5.7835 2.7835 5 3.75 5H17.25C18.2165 5 19 5.7835 19 6.75V11.1739C18.5185 11.0602 18.0163 11 17.5 11C14.0784 11 11.2743 13.6438 11.0189 17H3.75C2.7835 17 2 16.2165 2 15.25V6.75ZM5 7.25C5 7.66421 4.66421 8 4.25 8H3.25V9.5H4.25C5.49264 9.5 6.5 8.49264 6.5 7.25V6.25H5V7.25ZM10.5 13.5C11.7426 13.5 12.75 12.4926 12.75 11.25C12.75 10.0074 11.7426 9 10.5 9C9.25736 9 8.25 10.0074 8.25 11.25C8.25 12.4926 9.25736 13.5 10.5 13.5ZM4.25 14C4.66421 14 5 14.3358 5 14.75V15.75H6.5V14.75C6.5 13.5074 5.49264 12.5 4.25 12.5H3.25V14H4.25ZM16.75 8C16.3358 8 16 7.66421 16 7.25V6.25H14.5V7.25C14.5 8.49264 15.5074 9.5 16.75 9.5H17.75V8H16.75ZM4.40135 18.5H11.0764C11.1572 19.0232 11.3004 19.5258 11.4982 20H7C5.88958 20 4.92006 19.3967 4.40135 18.5ZM20.5 11.7322C21.051 12.0194 21.5557 12.3832 22 12.8096V10C22 8.88958 21.3967 7.92006 20.5 7.40135V11.7322ZM23 17.5C23 20.5376 20.5376 23 17.5 23C14.4624 23 12 20.5376 12 17.5C12 14.4624 14.4624 12 17.5 12C20.5376 12 23 14.4624 23 17.5ZM15.8536 15.1464C15.6583 14.9512 15.3417 14.9512 15.1464 15.1464C14.9512 15.3417 14.9512 15.6583 15.1464 15.8536L16.7929 17.5L15.1464 19.1464C14.9512 19.3417 14.9512 19.6583 15.1464 19.8536C15.3417 20.0488 15.6583 20.0488 15.8536 19.8536L17.5 18.2071L19.1464 19.8536C19.3417 20.0488 19.6583 20.0488 19.8536 19.8536C20.0488 19.6583 20.0488 19.3417 19.8536 19.1464L18.2071 17.5L19.8536 15.8536C20.0488 15.6583 20.0488 15.3417 19.8536 15.1464C19.6583 14.9512 19.3417 14.9512 19.1464 15.1464L17.5 16.7929L15.8536 15.1464Z" fill="#212121"/>
</svg>

<svg xmlns="http://www.w3.org/2000/svg" width="24" height="24"><path d="M2 6.75C2 5.784 2.784 5 3.75 5h13.5c.966 0 1.75.784 1.75 1.75v4.424A6.5 6.5 0 0 0 11.019 17H3.75A1.75 1.75 0 0 1 2 15.25v-8.5Zm3 .5a.75.75 0 0 1-.75.75h-1v1.5h1A2.25 2.25 0 0 0 6.5 7.25v-1H5v1Zm5.5 6.25a2.25 2.25 0 1 0 0-4.5 2.25 2.25 0 0 0 0 4.5Zm-6.25.5a.75.75 0 0 1 .75.75v1h1.5v-1a2.25 2.25 0 0 0-2.25-2.25h-1V14h1Zm12.5-6a.75.75 0 0 1-.75-.75v-1h-1.5v1a2.25 2.25 0 0 0 2.25 2.25h1V8h-1ZM4.401 18.5h6.675c.081.523.224 1.026.422 1.5H7a3 3 0 0 1-2.599-1.5ZM20.5 11.732A6.518 6.518 0 0 1 22 12.81V10a3 3 0 0 0-1.5-2.599v4.331ZM23 17.5a5.5 5.5 0 1 1-11 0 5.5 5.5 0 0 1 11 0Zm-7.146-2.354a.5.5 0 0 0-.708.708l1.647 1.646-1.647 1.646a.5.5 0 0 0 .708.708l1.646-1.647 1.646 1.647a.5.5 0 0 0 .708-.708L18.207 17.5l1.647-1.646a.5.5 0 0 0-.708-.708L17.5 16.793l-1.646-1.647Z"/></svg>
